src/status/24/riot-tray.svg

<svg xmlns="http://www.w3.org/2000/svg" width="24" height="24" version="1.1">
 <defs>
  <style id="current-color-scheme" type="text/css">
   .ColorScheme-Text { color:#ffffff; } .ColorScheme-Highlight { color:#4285f4; }
  </style>
 </defs>
 <path style="opacity:0.3;fill:currentColor" class="ColorScheme-Text" d="M 7.463225,4.0002283 C 8.2631167,3.9896212 9.0547601,4.3628968 9.5472094,5.0666345 9.7479695,5.3535055 9.8804205,5.6731293 9.9476,6.0060877 h 2.732422 c 2.092826,0 3.791015,1.3954526 3.791015,3.4882816 0,1.2468557 -0.611138,2.2370667 -1.541015,2.8417967 l 1.009765,1.443359 c 1.254748,-1.003283 2.060547,-2.540458 2.060547,-4.2675777 0,-3.0241717 -2.462434,-5.4765627 -5.5,-5.4765628 H 7.9046313 C 7.7588252,4.0107433 7.6111106,3.9988752 7.463225,4.0002283 Z m -2.4589844,2.5195312 -0.00391,0.00391 v 0.035156 c -2.756e-4,-0.012969 0.00398,-0.026075 0.00391,-0.039063 z m -0.00391,0.039063 V 17.474837 c -0.047813,3.365899 5.0478124,3.365899 4.9999994,0 v -2.488281 h 0.679688 l -0.04883,-0.07031 A 2.50025,2.50025 0 0 1 10.205412,12.984603 H 7.7933032 v 4.6875 c 0.00763,0.53942 -0.8064582,0.53942 -0.7988282,0 V 8.9416345 C 6.3922418,8.8165466 5.8332903,8.4766218 5.4534594,7.9338221 5.1662834,7.5234692 5.0107333,7.0482416 5.0003344,6.5588221 Z m 4.9707031,0.2441406 c -0.00539,0.043712 -0.00206,0.087156 -0.00977,0.1308594 C 9.8452636,7.5918071 9.4807185,8.1658977 8.9339282,8.5490564 8.5834115,8.7946666 8.1911464,8.9267065 7.7933032,8.9728845 v 3.2128905 h 0.796875 1.9140628 A 2.50025,2.50025 0 0 1 12.16635,11.004134 H 10.000334 V 8.0178064 h 2.5 c 0.875806,0 1.5,0.6221971 1.5,1.4941409 0,0.7451277 -0.45757,1.3017037 -1.136719,1.4492187 a 2.50025,2.50025 0 0 1 1.583985,0.748046 c 0.741261,-0.456195 1.224609,-1.2185 1.224609,-2.2148427 0,-1.6616829 -1.330506,-2.6914066 -2.992187,-2.6914066 h -2.095703 z"/>
 <path style="fill:currentColor" class="ColorScheme-Text" d="M 7.4554125,4.0002283 C 6.9738856,4.0081177 6.4900787,4.1547632 6.0667406,4.4514002 5.5198019,4.8344107 5.1552576,5.4087979 5.0393969,6.0666345 4.9233887,6.7244711 5.070558,7.386685 5.4534594,7.9338221 6.2439419,9.0634663 7.8050264,9.3400883 8.9339282,8.5490564 9.4807185,8.1658977 9.8452636,7.5918071 9.9612719,6.9338221 10.077132,6.2762818 9.9301107,5.6137714 9.5472094,5.0666345 9.0531579,4.3606071 8.2579574,3.9870793 7.4554125,4.0002283 Z m 5.1406245,6.9531247 a 2.50025,2.50025 0 0 0 -1.964843,3.962891 l 2.792968,3.988281 a 2.50025,2.50025 0 1 0 4.095703,-2.867188 L 14.72885,12.049056 a 2.50025,2.50025 0 0 0 -2.132813,-1.095703 z"/>
</svg>

<?xml version="1.0" encoding="UTF-8"?>
<svg width="24" height="24" version="1.1" xmlns="http://www.w3.org/2000/svg">
 <defs>
  <style id="current-color-scheme" type="text/css">.ColorScheme-Text { color:#ffffff; } .ColorScheme-Highlight { color:#4285f4; }</style>
 </defs>
 <path class="ColorScheme-Text" d="m7.4632 4.0002c0.79989-0.010607 1.5915 0.36267 2.084 1.0664 0.20076 0.28687 0.33321 0.60649 0.40039 0.93945h2.7324c2.0928 0 3.791 1.3955 3.791 3.4883 0 1.2469-0.61114 2.2371-1.541 2.8418l1.0098 1.4434c1.2547-1.0033 2.0605-2.5405 2.0605-4.2676 0-3.0242-2.4624-5.4766-5.5-5.4766h-4.5957c-0.14581-0.024641-0.29352-0.036509-0.44141-0.035156zm-2.459 2.5195-0.00391 0.00391v0.035156c-2.756e-4 -0.012969 0.00398-0.026075 0.00391-0.039063zm-0.00391 0.039063v10.916c-0.047813 3.3659 5.0478 3.3659 5 0v-2.4883h0.67969l-0.04883-0.07031a2.5002 2.5002 0 0 1-0.42578-1.9316h-2.4121v4.6875c0.00763 0.53942-0.80646 0.53942-0.79883 0v-8.7305c-0.60223-0.12509-1.1612-0.46501-1.541-1.0078-0.28718-0.41035-0.44273-0.88558-0.45312-1.375zm4.9707 0.24414c-0.00539 0.043712-0.00206 0.087156-0.00977 0.13086-0.116 0.65798-0.48055 1.2321-1.0273 1.6152-0.35052 0.24561-0.74278 0.37765-1.1406 0.42383v3.2129h2.7109a2.5002 2.5002 0 0 1 1.6621-1.1816h-2.166v-2.9863h2.5c0.87581 0 1.5 0.6222 1.5 1.4941 0 0.74513-0.45757 1.3017-1.1367 1.4492a2.5002 2.5002 0 0 1 1.584 0.74805c0.74126-0.4562 1.2246-1.2185 1.2246-2.2148 0-1.6617-1.3305-2.6914-2.9922-2.6914h-2.0957z" fill="currentColor" opacity=".3"/>
 <path class="ColorScheme-Text" d="m7.4554 4.0002c-0.48153 0.0078894-0.96533 0.15453-1.3887 0.45117-0.54694 0.38301-0.91148 0.9574-1.0273 1.6152-0.11601 0.65784 0.031161 1.3201 0.41406 1.8672 0.79048 1.1296 2.3516 1.4063 3.4805 0.61523 0.54679-0.38316 0.91134-0.95725 1.0273-1.6152 0.11586-0.65754-0.031161-1.3201-0.41406-1.8672-0.49405-0.70603-1.2893-1.0796-2.0918-1.0664zm5.1406 6.9531a2.5002 2.5002 0 0 0-1.9648 3.9629l2.793 3.9883a2.5002 2.5002 0 1 0 4.0957-2.8672l-2.791-3.9883a2.5002 2.5002 0 0 0-2.1328-1.0957z" fill="currentColor"/>
</svg>
